X: 2
T: The Turnpike
R: reel
M: 4/4
L: 1/8
K: Amaj
|:GABG A2 GE |DB,DE GABd |~g3d e2dB |cABG AGED |GABG A2 GE |DB,DE GABd |~g3d e2dB |cAFA G4:|D2 FD ADFD|G2BG dGB^G|A2^cA eA^cA | d~f3 a~f3 |g3d e3d |B=cde fgef |gafg efed| =cAFA G2 (3DEF||


Tune 917	Setting 22912

